src/assets/img/icons/duotone-icons/Design/Image.svg

<?xml version="1.0" encoding="UTF-8"?>
<svg width="24px" height="24px" viewBox="0 0 24 24" version="1.1" xmlns="http://www.w3.org/2000/svg" xmlns:xlink="http://www.w3.org/1999/xlink">
    <!-- Generator: Sketch 52.2 (67145) - http://www.bohemiancoding.com/sketch -->
    <title>Stockholm-icons / Design / Image</title>
    <desc>Created with Sketch.</desc>
    <g id="Stockholm-icons-/-Design-/-Image" stroke="none" stroke-width="1" fill="none" fill-rule="evenodd">
        <polygon id="Shape" points="0 0 24 0 24 24 0 24"></polygon>
        <path d="M6,5 L18,5 C19.6568542,5 21,6.34314575 21,8 L21,17 C21,18.6568542 19.6568542,20 18,20 L6,20 C4.34314575,20 3,18.6568542 3,17 L3,8 C3,6.34314575 4.34314575,5 6,5 Z M5,17 L14,17 L9.5,11 L5,17 Z M16,14 C17.6568542,14 19,12.6568542 19,11 C19,9.34314575 17.6568542,8 16,8 C14.3431458,8 13,9.34314575 13,11 C13,12.6568542 14.3431458,14 16,14 Z" id="Rectangle-25" fill="#335EEA"></path>
    </g>
</svg>

<svg width="24" height="24" viewBox="0 0 24 24" xmlns="http://www.w3.org/2000/svg"><g fill="none" fill-rule="evenodd"><path d="M0 0h24v24H0z"/><path d="M6 5h12a3 3 0 013 3v9a3 3 0 01-3 3H6a3 3 0 01-3-3V8a3 3 0 013-3zM5 17h9l-4.5-6L5 17zm11-3a3 3 0 100-6 3 3 0 000 6z" fill="#335EEA"/></g></svg>
